usr/share/icons/biglinux-icons-material/scalable/apps/preferences-desktop-cryptography.svg

<?xml version="1.0" encoding="UTF-8" standalone="no"?>
<svg
   width="24"
   height="24"
   version="1.1"
   id="svg19"
   sodipodi:docname="preferences-desktop-cryptography.svg"
   inkscape:version="1.3 (0e150ed6c4, 2023-07-21)"
   xmlns:inkscape="http://www.inkscape.org/namespaces/inkscape"
   xmlns:sodipodi="http://sodipodi.sourceforge.net/DTD/sodipodi-0.dtd"
   xmlns:xlink="http://www.w3.org/1999/xlink"
   xmlns="http://www.w3.org/2000/svg"
   xmlns:svg="http://www.w3.org/2000/svg">
  <defs
     id="defs19">
    <radialGradient
       fx="0"
       fy="0"
       cx="0"
       cy="0"
       r="1"
       gradientUnits="userSpaceOnUse"
       gradientTransform="matrix(0,22.000002,-22.000002,0,11.999545,0.9999636)"
       spreadMethod="pad"
       id="radialGradient12763-3">
      <stop
         style="stop-color:#d9d9d9;stop-opacity:1;"
         offset="0"
         id="stop12759-6" />
      <stop
         style="stop-color:#cacbcf;stop-opacity:1;"
         offset="1"
         id="stop12761-7" />
    </radialGradient>
  </defs>
  <sodipodi:namedview
     id="namedview19"
     pagecolor="#ffffff"
     bordercolor="#000000"
     borderopacity="0.25"
     inkscape:showpageshadow="2"
     inkscape:pageopacity="0.0"
     inkscape:pagecheckerboard="0"
     inkscape:deskcolor="#d1d1d1"
     inkscape:zoom="8.9603687"
     inkscape:cx="33.034355"
     inkscape:cy="24.719965"
     inkscape:window-width="2560"
     inkscape:window-height="998"
     inkscape:window-x="0"
     inkscape:window-y="0"
     inkscape:window-maximized="1"
     inkscape:current-layer="svg19" />
  <linearGradient
     id="a"
     x1="386.57001"
     x2="386.57001"
     y1="549.79999"
     y2="497.79999"
     gradientTransform="matrix(0.54545,0,0,0.53846,177.71,249.75)"
     gradientUnits="userSpaceOnUse">
    <stop
       stop-color="#7f8c8d"
       offset="0"
       id="stop1" />
    <stop
       stop-color="#afb0b3"
       offset="1"
       id="stop2" />
  </linearGradient>
  <linearGradient
     id="b"
     x1="400.57001"
     x2="400.57001"
     y1="522.79999"
     y2="535.79999"
     gradientUnits="userSpaceOnUse">
    <stop
       stop-color="#da4453"
       offset="0"
       id="stop3" />
    <stop
       stop-color="#c72737"
       offset="1"
       id="stop4" />
  </linearGradient>
  <path
     d="m 9.5928808,1.1146316 c 0.12,0 0.2346667,-0.016 0.344,-0.046667 1.4373332,-0.0946666 2.8746662,-0.0893333 4.3080002,0.010667 1.301333,0.104 2.561333,0.3853333 3.781333,0.848 2.025333,0.8333333 3.410667,2.2813333 4.161333,4.3386665 0.421334,1.24 0.676,2.516 0.754667,3.8226669 0.104,1.646666 0.068,3.286666 -0.114667,4.928 -0.14,1.150666 -0.437333,2.254666 -0.896,3.317333 -0.849333,1.844 -2.229333,3.114666 -4.134666,3.812 -1.542667,0.521333 -3.130667,0.797333 -4.766667,0.824 -1.833333,0.09867 -3.6506665,-0.04267 -5.4519998,-0.412 -3.3079999,-0.734667 -5.3546665,-2.754667 -6.1253332,-6.057333 -0.328,-1.484 -0.47999995,-2.989334 -0.4479999,-4.510667 -0.036,-1.62 0.1346666,-3.2133333 0.5159999,-4.7866666 C 2.332881,4.1199649 4.2915476,2.2079649 7.3955476,1.4692983 8.1195475,1.2919649 8.8542142,1.1719649 9.5928808,1.1146316 Z"
     style="fill:url(#radialGradient12763-3);fill-rule:evenodd;stroke:none;stroke-width:1.33333"
     id="path12765-6" />
  <g
     id="g22"
     transform="translate(0.290999)">
    <g
       fill-rule="evenodd"
       id="g21"
       transform="matrix(0.43831146,0,0,0.43831146,-2.3169653,0.13229872)"
       style="stroke-width:2.28147">
      <path
         d="M 48,27.122 C 48,35.837 40.837,43 32,43 23.163,43 16,35.837 16,27.122 16,18.164 23.163,11 32,11 c 8.837,0 16,7.164 16,16.122"
         fill="#ffffff"
         id="path20"
         style="stroke-width:2.28147" />
      <use
         transform="translate(27,22)"
         width="100%"
         height="100%"
         fill="#1a1a1a"
         xlink:href="#a"
         id="use20"
         style="stroke-width:2.28147" />
      <use
         transform="translate(27.003,22.007)"
         width="100%"
         height="100%"
         fill="#ffffff"
         opacity="0.1"
         xlink:href="#b"
         id="use21"
         style="stroke-width:2.28147" />
    </g>
    <path
       d="m 11.709001,4.5154125 c -4.1148677,0 -7.4512946,3.3355516 -7.4512946,7.4512945 0,4.11487 3.3364269,7.451295 7.4512946,7.451295 4.114868,0 7.451295,-3.336425 7.451295,-7.451295 0,-4.1157429 -3.336427,-7.4512945 -7.451295,-7.4512945 z m 4.56589,12.0176235 a 6.4493148,6.4493148 0 0 1 -2.052612,1.384627 6.4195096,6.4195096 0 0 1 -2.513278,0.50625 c -0.872239,0 -1.7181814,-0.170065 -2.5132777,-0.50625 A 6.4493148,6.4493148 0 0 1 7.1431108,16.532599 6.4300291,6.4300291 0 0 1 5.2509202,11.966707 6.432659,6.432659 0 0 1 7.1426725,7.4008171 6.4247693,6.4247693 0 0 1 9.1957233,6.0157536 6.4133733,6.4133733 0 0 1 11.709001,5.5095039 c 0.872241,0 1.718182,0.1709414 2.513278,0.5071269 a 6.4234543,6.4234543 0 0 1 2.052612,1.3841863 6.432659,6.432659 0 0 1 1.892191,4.5658899 6.4313441,6.4313441 0 0 1 -1.891751,4.566329 z"
       fill="#808080"
       id="path21"
       style="stroke-width:0.999999" />
    <path
       d="M 11.709001,6.2686591 A 2.6232941,2.6232941 0 0 0 9.0791332,8.8985281 V 11.528398 H 7.3258866 v 4.085938 c 1.0449349,1.249625 2.6202271,2.050422 4.3831144,2.050422 1.762889,0 3.337742,-0.800797 4.383115,-2.050422 V 11.528398 H 14.338871 V 8.8985281 a 2.6232941,2.6232941 0 0 0 -2.62987,-2.629869 z m 0,0.8766224 c 1.092712,0 1.753246,0.4786369 1.753246,1.7532466 V 11.528398 H 9.9557554 V 8.8985281 c 0,-1.2746097 0.6605356,-1.7532466 1.7532456,-1.7532466 z"
       fill="#ff5555"
       id="path22"
       style="stroke-width:0.999999" />
  </g>
  <path
     id="path29009"
     style="fill:#949496;fill-opacity:1;stroke-width:0.465671"
     d="m 1.2011719,15.109375 c 0.067716,0.465407 0.1499632,0.929183 0.2519531,1.390625 0.7706659,3.302663 2.8170034,5.321974 6.125,6.056641 1.2474244,0.255761 2.502855,0.400493 3.765625,0.433593 V 19.953125 C 7.6429283,19.754209 5.3581245,18.051291 4.2265625,15.109375 Z" />
  <path
     d="m 8.6412934,20.971092 2.3708216,-5.3717 c 0.0349,-0.07274 0.04498,-0.156778 0.02285,-0.239589 -0.04964,-0.185282 -0.243765,-0.294879 -0.433471,-0.244012 a 0.3565571,0.3565571 0 0 0 -0.200763,0.13933 L 6.8221416,19.946144 A 1.036006,1.036006 0 0 0 6.620887,20.870096 c 0.1496503,0.557811 0.7320353,0.885864 1.3011509,0.733265 a 1.0718829,1.0718829 0 0 0 0.7192575,-0.632269 z"
     fill="#ffffff"
     id="path29011"
     style="stroke-width:0.245732" />
  <rect
     transform="scale(-1,1)"
     x="-14.784595"
     y="20.074169"
     width="0.24573196"
     height="1.7201238"
     rx="0.12286598"
     fill-rule="evenodd"
     opacity="0.15"
     id="rect29013"
     style="stroke-width:0.245732" />
  <rect
     transform="scale(-1,1)"
     x="-14.29313"
     y="20.074169"
     width="0.24573196"
     height="1.7201238"
     rx="0.12286598"
     fill-rule="evenodd"
     opacity="0.15"
     id="rect29015"
     style="stroke-width:0.245732" />
  <rect
     transform="scale(-1,1)"
     x="-13.801664"
     y="20.074169"
     width="0.24573196"
     height="1.7201238"
     rx="0.12286598"
     fill-rule="evenodd"
     opacity="0.15"
     id="rect29017"
     style="stroke-width:0.245732" />
  <rect
     transform="scale(-1,1)"
     x="-13.3102"
     y="20.074169"
     width="0.24573196"
     height="1.7201238"
     rx="0.12286598"
     fill-rule="evenodd"
     opacity="0.15"
     id="rect29019"
     style="stroke-width:0.245732" />
  <rect
     transform="scale(-1,1)"
     x="-12.818735"
     y="20.074169"
     width="0.24573196"
     height="1.7201238"
     rx="0.12286598"
     fill-rule="evenodd"
     opacity="0.15"
     id="rect29021"
     style="stroke-width:0.245732" />
  <path
     d="m 16.504716,20.934232 a 0.368598,0.368598 0 1 0 -0.737196,0 0.368598,0.368598 0 0 0 0.737196,0 z M 8.1498291,20.565634 a 0.49146403,0.49146403 0 1 1 -0.982928,0 0.49146403,0.49146403 0 0 1 0.982928,0 z"
     opacity="0.15"
     id="path29023"
     style="stroke-width:0.245732" />
  <path
     d="m 7.9040969,20.565634 a 0.24573197,0.24573197 0 1 0 -0.4914636,0 0.24573197,0.24573197 0 0 0 0.4914636,0 z"
     opacity="0.35"
     id="path29025"
     style="stroke-width:0.245732" />
</svg>

<svg xmlns="http://www.w3.org/2000/svg" xmlns:xlink="http://www.w3.org/1999/xlink" width="24" height="24"><defs><radialGradient id="a" cx="0" cy="0" r="1" fx="0" fy="0" gradientTransform="matrix(0 22 -22 0 12 1)" gradientUnits="userSpaceOnUse" spreadMethod="pad"><stop offset="0" style="stop-color:#d9d9d9;stop-opacity:1"/><stop offset="1" style="stop-color:#cacbcf;stop-opacity:1"/></radialGradient></defs><linearGradient id="b" x1="386.57" x2="386.57" y1="549.8" y2="497.8" gradientTransform="matrix(.54545 0 0 .53846 177.71 249.75)" gradientUnits="userSpaceOnUse"><stop offset="0" stop-color="#7f8c8d"/><stop offset="1" stop-color="#afb0b3"/></linearGradient><linearGradient id="c" x1="400.57" x2="400.57" y1="522.8" y2="535.8" gradientUnits="userSpaceOnUse"><stop offset="0" stop-color="#da4453"/><stop offset="1" stop-color="#c72737"/></linearGradient><path d="M9.593 1.115c.12 0 .235-.016.344-.047a31.814 31.814 0 0 1 4.308.01 13.68 13.68 0 0 1 3.781.849c2.026.833 3.41 2.281 4.162 4.338.42 1.24.676 2.516.754 3.823a28.303 28.303 0 0 1-.114 4.928 11.968 11.968 0 0 1-.896 3.317c-.85 1.844-2.23 3.115-4.135 3.812-1.543.522-3.13.798-4.767.824a21.33 21.33 0 0 1-5.452-.412c-3.308-.734-5.354-2.754-6.125-6.057a18.991 18.991 0 0 1-.448-4.51c-.036-1.62.135-3.214.516-4.787.812-3.083 2.77-4.995 5.875-5.734a13.692 13.692 0 0 1 2.197-.354Z" style="fill:url(#a);fill-rule:evenodd;stroke:none;stroke-width:1.33333"/><g fill-rule="evenodd" style="stroke-width:2.28147" transform="translate(-2.026 .132) scale(.43831)"><path fill="#fff" d="M48 27.122C48 35.837 40.837 43 32 43s-16-7.163-16-15.878C16 18.164 23.163 11 32 11s16 7.164 16 16.122" style="stroke-width:2.28147"/><use xlink:href="#b" width="100%" height="100%" fill="#1a1a1a" style="stroke-width:2.28147" transform="translate(27 22)"/><use xlink:href="#c" width="100%" height="100%" fill="#fff" opacity=".1" style="stroke-width:2.28147" transform="translate(27.003 22.007)"/></g><path fill="gray" d="M11.709 4.515a7.451 7.451 0 1 0 0 14.903 7.451 7.451 0 0 0 0-14.903zm4.566 12.018a6.45 6.45 0 0 1-2.053 1.385 6.42 6.42 0 0 1-2.513.506c-.872 0-1.718-.17-2.513-.506a6.45 6.45 0 0 1-2.053-1.385 6.43 6.43 0 0 1-1.892-4.566A6.433 6.433 0 0 1 7.143 7.4a6.425 6.425 0 0 1 2.053-1.385 6.413 6.413 0 0 1 2.513-.506c.872 0 1.718.17 2.513.507A6.423 6.423 0 0 1 16.275 7.4a6.433 6.433 0 0 1 1.892 4.566 6.431 6.431 0 0 1-1.892 4.566z" style="stroke-width:.999999" transform="translate(.291)"/><path fill="#f55" d="M11.709 6.269a2.623 2.623 0 0 0-2.63 2.63v2.63H7.326v4.085a5.703 5.703 0 0 0 4.383 2.05c1.763 0 3.338-.8 4.383-2.05v-4.086H14.34v-2.63a2.623 2.623 0 0 0-2.63-2.63zm0 .876c1.093 0 1.753.479 1.753 1.754v2.63H9.956v-2.63c0-1.275.66-1.754 1.753-1.754z" style="stroke-width:.999999" transform="translate(.291)"/><path d="M1.201 15.11c.068.465.15.929.252 1.39.77 3.303 2.817 5.322 6.125 6.057 1.248.255 2.503.4 3.766.433v-3.037c-3.701-.199-5.986-1.902-7.117-4.844Z" style="fill:#949496;fill-opacity:1;stroke-width:.465671"/><path fill="#fff" d="m8.641 20.971 2.371-5.372a.345.345 0 0 0 .023-.24.352.352 0 0 0-.434-.243.357.357 0 0 0-.2.14l-3.579 4.69a1.036 1.036 0 0 0-.201.924c.15.558.732.886 1.301.733a1.072 1.072 0 0 0 .72-.632z" style="stroke-width:.245732"/><rect width=".246" height="1.72" x="-14.785" y="20.074" fill-rule="evenodd" opacity=".15" rx=".123" style="stroke-width:.245732" transform="scale(-1 1)"/><rect width=".246" height="1.72" x="-14.293" y="20.074" fill-rule="evenodd" opacity=".15" rx=".123" style="stroke-width:.245732" transform="scale(-1 1)"/><rect width=".246" height="1.72" x="-13.802" y="20.074" fill-rule="evenodd" opacity=".15" rx=".123" style="stroke-width:.245732" transform="scale(-1 1)"/><rect width=".246" height="1.72" x="-13.31" y="20.074" fill-rule="evenodd" opacity=".15" rx=".123" style="stroke-width:.245732" transform="scale(-1 1)"/><rect width=".246" height="1.72" x="-12.819" y="20.074" fill-rule="evenodd" opacity=".15" rx=".123" style="stroke-width:.245732" transform="scale(-1 1)"/><path d="M16.505 20.934a.369.369 0 1 0-.737 0 .369.369 0 0 0 .737 0zm-8.355-.368a.491.491 0 1 1-.983 0 .491.491 0 0 1 .983 0z" opacity=".15" style="stroke-width:.245732"/><path d="M7.904 20.566a.246.246 0 1 0-.491 0 .246.246 0 0 0 .491 0z" opacity=".35" style="stroke-width:.245732"/></svg>
